X: 4
T: The Cascade Polka
C: Timmy Connor
M: 2/4
L: 1/8
R: polka
K: G Major
|: BA/B/ cD | ED AD | B2 d>G | BA A2 |
BA/B/ cD | ED AD | B2 c/d/c/A/ | AG G2 :|
|: Bd dB/d/ | eB dG | BA/B/ dG | BA- Ac |
[1 Bd- dB/d/ | eB dG | BA/B/ dA | AG G2 :|
[2 B2 cD | ED AD | B2 d/c/B/A/ | AG G2 :|
